X:4770
T:Polska efter Anders Frefik Andersson, Tryserum
T:Slngpolska
L:1/16
M:3/4
O:Sweden
R:Slngpolska
Z:Carol Turner
%%TUNEURL: http://www.leeds.ac.uk/music/Info/RRTuneBk/gettune/00000c27.html
%%ID:00000c27
K:A
E|A2AB =cBAG G2A2|AGAB =cBAG G2A2|AGAB =cBcd edef|=gfe^d ^d2e2 e2 z :||:
e2a2 a2(3bag a2a2|e2fe d2d2 ~f2e2|cdcA BcBG ABcd| e2a2 agbg e3z|  e2a2
a2(3bag a2a2|e2fe d2f2 ~f2e2|c2cd B2Bc A3c|dcBA G2A2 A4:|
